svgs/light/align-justify.svg

<svg xmlns="http://www.w3.org/2000/svg" viewBox="0 0 448 512"><!--! Font Awesome Pro 6.0.0-alpha3 by @fontawesome - https://fontawesome.com License - https://fontawesome.com/license (Commercial License) --><path d="M432 432h-416c-8.801 0-16 7.199-16 16S7.199 464 16 464h416c8.801 0 16-7.199 16-15.1S440.8 432 432 432zM16 80h416c8.801 0 16-7.199 16-15.1S440.8 48 432 48h-416C7.199 48 0 55.2 0 64S7.199 80 16 80zM432 176h-416C7.199 176 0 183.2 0 192S7.199 208 16 208h416c8.801 0 16-7.199 16-15.1S440.8 176 432 176zM432 304h-416C7.199 304 0 311.2 0 320S7.199 336 16 336h416c8.801 0 16-7.199 16-15.1S440.8 304 432 304z"/></svg>

<svg xmlns="http://www.w3.org/2000/svg" viewBox="0 0 448 512"><!--! Font Awesome Pro 6.4.2 by @fontawesome - https://fontawesome.com License - https://fontawesome.com/license (Commercial License) Copyright 2023 Fonticons, Inc. --><path d="M16 48C7.2 48 0 55.2 0 64s7.2 16 16 16H432c8.8 0 16-7.2 16-16s-7.2-16-16-16H16zM0 192c0 8.8 7.2 16 16 16H432c8.8 0 16-7.2 16-16s-7.2-16-16-16H16c-8.8 0-16 7.2-16 16zM16 304c-8.8 0-16 7.2-16 16s7.2 16 16 16H432c8.8 0 16-7.2 16-16s-7.2-16-16-16H16zm0 128c-8.8 0-16 7.2-16 16s7.2 16 16 16H432c8.8 0 16-7.2 16-16s-7.2-16-16-16H16z"/></svg>
